X: 301
T: the New Coldstream March
B: C. & S. Thompson, "The Compleat Tutor for the Fife" c.1760 p.30 #1
S: http://imslp.org/wiki/The_Compleat_Tutor_for_the_Fife_(Anonymous)
Z: 2014 John Chambers <jc:trillian.mit.edu>
N: The 2nd strain has initial repeat but no final repeat; not fixed.
M: C|
L: 1/8
K: D
% - - - - - - - - - - - - - - - - - - - - - - - - -
A>F |\
D2d>A F2A>F | G2 g4 e>g |\
f>ad>f e>gc>e | d2d>d d2 :|\
|: A>c |\
e2c>e g2e>g | f>ad>f e2A>c |
e2c>e g2e>g | f>ad>f e2A>F |\
D2d>A F2A>F | G2 g4 e>g |\
f>ad>f e>gc>e | d2d>d d2 |]
% - - - - - - - - - - - - - - - - - - - - - - - - -
